web/ui/src/components/theme/button/svgs/cancel.svg

<svg height="16" viewBox="0 0 16 16" width="16" xmlns="http://www.w3.org/2000/svg"><g fill="none"><path d="m0 0h16v16h-16z" fill="#000" opacity="0"/><path d="m8 15c-3.85998437 0-7-3.1400156-7-7 0-3.85998437 3.14001563-7 7-7 3.8599844 0 7 3.14001563 7 7 0 3.8599844-3.1400156 7-7 7zm0-13c-3.3085 0-6 2.6915-6 6s2.6915 6 6 6 6-2.6915 6-6-2.6915-6-6-6zm-1.64644661 3.64644661 1.76744661 1.76755339 1.7680873-1.76755339c.1735663-.17356635.4429907-.1928515.6378589-.05785545l.0692479.05785545c.1952621.19526215.1952621.51184463 0 .70710678l-1.7681941 1.76744661 1.7681941 1.7680873c.1952621.1952621.1952621.5118446 0 .7071068-.1952622.1952621-.5118447.1952621-.7071068 0l-1.7680873-1.7681941-1.76744661 1.7681941c-.17356635.1735663-.44299075.1928515-.63785889.0578554l-.06924789-.0578554c-.19526215-.1952622-.19526215-.5118447 0-.7071068l1.76755339-1.7680873-1.76755339-1.76744661c-.19526215-.19526215-.19526215-.51184463 0-.70710678s.51184463-.19526215.70710678 0z" fill="#595959"/></g></svg>

<?xml version="1.0" encoding="UTF-8"?>
<svg width="16px" height="16px" viewBox="0 0 16 16" version="1.1" xmlns="http://www.w3.org/2000/svg" xmlns:xlink="http://www.w3.org/1999/xlink">
    <title>cancel</title>
    <g id="页面-1" stroke="none" stroke-width="1" fill="none" fill-rule="evenodd">
        <g id="系统设计规范" transform="translate(-1037.000000, -5253.000000)" fill-rule="nonzero">
            <g id="cancel" transform="translate(1037.000000, 5253.000000)">
                <rect id="矩形" fill="#000000" opacity="0" x="0" y="0" width="16" height="16"></rect>
                <path d="M8,15 C4.14001563,15 1,11.8599844 1,8 C1,4.14001563 4.14001563,1 8,1 C11.8599844,1 15,4.14001563 15,8 C15,11.8599844 11.8599844,15 8,15 Z M8,2 C4.6915,2 2,4.6915 2,8 C2,11.3085 4.6915,14 8,14 C11.3085,14 14,11.3085 14,8 C14,4.6915 11.3085,2 8,2 Z M6.35355339,5.64644661 L8.121,7.414 L9.8890873,5.64644661 C10.0626536,5.47288026 10.332078,5.45359511 10.5269462,5.58859116 L10.5961941,5.64644661 C10.7914562,5.84170876 10.7914562,6.15829124 10.5961941,6.35355339 L10.5961941,6.35355339 L8.828,8.121 L10.5961941,9.8890873 C10.7914562,10.0843494 10.7914562,10.4009319 10.5961941,10.5961941 C10.4009319,10.7914562 10.0843494,10.7914562 9.8890873,10.5961941 L8.121,8.828 L6.35355339,10.5961941 C6.17998704,10.7697604 5.91056264,10.7890456 5.7156945,10.6540495 L5.64644661,10.5961941 C5.45118446,10.4009319 5.45118446,10.0843494 5.64644661,9.8890873 L5.64644661,9.8890873 L7.414,8.121 L5.64644661,6.35355339 C5.45118446,6.15829124 5.45118446,5.84170876 5.64644661,5.64644661 C5.84170876,5.45118446 6.15829124,5.45118446 6.35355339,5.64644661 Z" id="形状" fill="#595959"></path>
            </g>
        </g>
    </g>
</svg>
